assets/icons/qvision/settings_cell.svg

<svg xmlns="http://www.w3.org/2000/svg" height="24" viewBox="0 0 24 24" width="24"><path d="M0 0h24v24H0z" fill="none"/><path d="M7 24h2v-2H7v2zm4 0h2v-2h-2v2zm4 0h2v-2h-2v2zM16 .01L8 0C6.9 0 6 .9 6 2v16c0 1.1.9 2 2 2h8c1.1 0 2-.9 2-2V2c0-1.1-.9-1.99-2-1.99zM16 16H8V4h8v12z"/></svg>

<svg width="24" height="24" viewBox="0 0 24 24" fill="none" xmlns="http://www.w3.org/2000/svg">
<g clip-path="url(#clip0_147_4711)">
<path d="M7 24H9V22H7V24ZM11 24H13V22H11V24ZM15 24H17V22H15V24ZM16 0.01L8 0C6.9 0 6 0.9 6 2V18C6 19.1 6.9 20 8 20H16C17.1 20 18 19.1 18 18V2C18 0.9 17.1 0.01 16 0.01ZM16 16H8V4H16V16Z" fill="#323232"/>
</g>
<defs>
<clipPath id="clip0_147_4711">
<rect width="24" height="24" fill="white"/>
</clipPath>
</defs>
</svg>
